svgs/duotone/filter-list.svg

<svg xmlns="http://www.w3.org/2000/svg" viewBox="0 0 512 512"><!--! Font Awesome Pro 6.5.1 by @fontawesome - https://fontawesome.com License - https://fontawesome.com/license (Commercial License) Copyright 2023 Fonticons, Inc. --><defs><style>.fa-secondary{opacity:.4}</style></defs><path class="fa-secondary" d="M3.5 87.7C9.9 73.3 24.2 64 40 64H312c15.8 0 30.1 9.3 36.5 23.7s3.8 31.3-6.8 43L240 243.8V416c0 12.1-6.8 23.2-17.7 28.6s-23.8 4.3-33.5-3l-64-48c-8.1-6-12.8-15.5-12.8-25.6V243.8L10.3 130.8C-.3 119-3 102.2 3.5 87.7z"/><path class="fa-primary" d="M416 64h64c17.7 0 32 14.3 32 32s-14.3 32-32 32H416c-17.7 0-32-14.3-32-32s14.3-32 32-32zM320 256c0-17.7 14.3-32 32-32H480c17.7 0 32 14.3 32 32s-14.3 32-32 32H352c-17.7 0-32-14.3-32-32zm0 160c0-17.7 14.3-32 32-32H480c17.7 0 32 14.3 32 32s-14.3 32-32 32H352c-17.7 0-32-14.3-32-32z"/></svg>

<svg xmlns="http://www.w3.org/2000/svg" viewBox="0 0 512 512"><!--! Font Awesome Pro 6.1.1 by @fontawesome - https://fontawesome.com License - https://fontawesome.com/license (Commercial License) Copyright 2022 Fonticons, Inc. --><defs><style>.fa-secondary{opacity:.4}</style></defs><path class="fa-primary" d="M480 64C497.7 64 512 78.33 512 96C512 113.7 497.7 128 480 128H416C398.3 128 384 113.7 384 96C384 78.33 398.3 64 416 64H480zM320 256C320 238.3 334.3 224 352 224H480C497.7 224 512 238.3 512 256C512 273.7 497.7 288 480 288H352C334.3 288 320 273.7 320 256zM320 416C320 398.3 334.3 384 352 384H480C497.7 384 512 398.3 512 416C512 433.7 497.7 448 480 448H352C334.3 448 320 433.7 320 416z"/><path class="fa-secondary" d="M3.459 87.73C9.886 73.3 24.2 64 39.1 64H312C327.8 64 342.1 73.3 348.5 87.73C354.1 102.2 352.3 119 341.7 130.8L240 243.8V416C240 428.1 233.2 439.2 222.3 444.6C211.5 450 198.5 448.9 188.8 441.6L124.8 393.6C116.7 387.6 112 378.1 112 368V243.8L10.27 130.8C-.3002 119-2.968 102.2 3.459 87.73H3.459z"/></svg>
